!!!!SEGMENT: pl-sa--279-a-vii-39--001-004_rathgeber-johann-valentin--vesperae-nisi-dominus.krn
!!!cenid: 17xx:625
!!!COM: Rathgeber, Johann Valentin
!!!COM-rismID: pe30002639
!!!CDT: 1682/04/03-1750/06/02
!!!CNT: German
!!!OPR: Vesperae
!!!OTL: Nisi Dominus
!!!OMV: 004
!!!PDT: 1731
!!!AGN: Sacred; Vespers
!!!YEC: Copyright 2022 Narodowy Instytut Fryderyka Chopina (https://polishscores.org)
!!!YEM: License CC-BY-4.0 (https://creativecommons.org/licenses/by/4.0)
!!!SMS-siglum: PL-SA
!!!SMS-shelfmark: 279/A VII 39
!!!SMS-shelfwork: 001-004 M
!!!SMS-variant:
!!!SMS-altvar:
!!!NIFC-rismSourceID: 1001077278
!!!NIFC-rismChildID: 1001077278
!!!NIFC-islandoraID: none
!!!URL-pdf-islandora:
!!!URL-scan: https://bc.bdsandomierz.pl/dlibra/publication/1762/edition/1730/content @EN{Scan in the Sandomierz Diocese Digital Library} @PL{Skany w portalu Cyfrowa Biblioteka Diecezjalna w Sandomierzu}
!!!IIIF:
!!!ONB-nifc: UWAGA: części Vesperae: Dixit Dominus, Laudate Pueri, Laetatus sum, Nisi Dominus, Lauda Jerusalem, Magnificat
!!!AIN: 1 alto 1 empty 1 organ 1 tenor 2 violn 1 vox
!!!key:
**kern	**fb	**kern	**kern	**kern	**text	**kern	**text	**kern	**text	**kern	**text
*group	*	*group2	*group2	*group1	*	*group1	*	*group1	*	*group1	*
*part7	*	*part6	*part5	*part4	*	*part3	*	*part2	*	*part1	*
*staff7	*	*staff6	*staff5	*staff4	*	*staff3	*	*staff2	*	*staff1	*
*Iorgan	*	*Ivioln	*Ivioln	*Iempty	*	*Itenor	*	*Ialto	*	*Ivox	*
*I"Baſso Pro Organo	*	*I"Violino Uniſono	*I"Violino Uniſono	*I"Baſso	*	*I"Tenore	*	*I"Alto	*	*I"Canto	*
*I'Org.	*	*I'Vl. Uniſ.	*I'Vl. Uniſ.	*I'B.	*	*I'T.	*	*I'A.	*	*I'C.	*
*clefF4	*	*clefG2	*clefG2	*clefF4	*	*clefC4	*	*clefC3	*	*clefC1	*
*k[]	*	*k[]	*k[]	*k[]	*	*k[]	*	*k[]	*	*k[]	*
*C:	*	*C:	*C:	*C:	*	*C:	*	*C:	*	*C:	*
*M2/4	*	*M2/4	*M2/4	*M2/4	*	*M2/4	*	*M2/4	*	*M2/4	*
=1	=1	=1	=1	=1	=1	=1	=1	=1	=1	=1	=1
*	*above	*	*	*	*	*	*	*	*	*	*
!LO:TX:b:i:t=Nisi Dominus	!	!LO:TX:b:i:t=Nisi Dominus	!LO:TX:b:i:t=Niſi D(omi)nus	!	!	!	!	!	!	!	!
!	!	!LO:N:vis=00	!LO:N:vis=00	!	!	!LO:N:vis=00	!	!LO:N:vis=00	!	!LO:N:vis=00	!
4C/|	.	0r	0r	4C/	Ni-	0r	.	0r	.	0r	.
4G\|	.	.	.	4G\	-ſi	.	.	.	.	.	.
=2	=2	=2	=2	=2	=2	=2	=2	=2	=2	=2	=2
8E\L|	.	.	.	8E\	Do-	.	.	.	.	.	.
8D\|	.	.	.	8D/	-mi-	.	.	.	.	.	.
8C\|	.	.	.	8C/	-nus	.	.	.	.	.	.
8D\J|	.	.	.	8D/	ae-	.	.	.	.	.	.
=3	=3	=3	=3	=3	=3	=3	=3	=3	=3	=3	=3
4E\	.	.	.	4E\	-di-	.	.	.	.	.	.
4F\	.	.	.	4F\	-fi-	.	.	.	.	.	.
=4	=4	=4	=4	=4	=4	=4	=4	=4	=4	=4	=4
4G\	.	.	.	4G\	-ca-	.	.	.	.	.	.
4E\	.	.	.	8E\	-ve-	.	.	.	.	.	.
.	.	.	.	8E\	-rit	.	.	.	.	.	.
=5	=5	=5	=5	=5	=5	=5	=5	=5	=5	=5	=5
!	!	!LO:N:vis=00	!LO:N:vis=00	!	!	!	!	!LO:N:vis=00	!	!LO:N:vis=00	!
2D/	.	0r	0r	2D/	Do-	2r	.	0r	.	0r	.
=6	=6	=6	=6	=6	=6	=6-	=6	=6	=6	=6	=6
4C/	.	.	.	4C/	-mum	4G/	Ni-	.	.	.	.
4D/	.	.	.	4r	.	4d\	-ſi	.	.	.	.
=7	=7	=7	=7	=7	=7	=7	=7	=7	=7	=7	=7
!	!	!	!	!LO:N:vis=00	!	!	!	!	!	!	!
!LO:TX:b:i:t=Solo	!	!	!	!	!	!	!	!	!	!	!
2GG/	.	.	.	0r	.	8B\	Do-	.	.	.	.
.	.	.	.	.	.	8A/	-mi-	.	.	.	.
.	.	.	.	.	.	8G/	-nus	.	.	.	.
.	.	.	.	.	.	8A/	ae-	.	.	.	.
=8	=8	=8	=8	=8	=8	=8	=8	=8	=8	=8	=8
4G\	.	.	.	.	.	4B\	-di-	.	.	.	.
4E\	X 6	.	.	.	.	4c\	-fi-	.	.	.	.
=9	=9	=9	=9	=9	=9	=9	=9	=9	=9	=9	=9
!	!	!LO:N:vis=00	!LO:N:vis=00	!	!	!	!	!LO:N:vis=0	!	!LO:N:vis=00	!
4F\	.	0r	0r	.	.	4c\	-ca-	1r	.	0r	.
4E\	X 6	.	.	.	.	8c\	-ve-	.	.	.	.
.	.	.	.	.	.	8c\	-rit	.	.	.	.
=10	=10	=10	=10	=10	=10	=10	=10	=10	=10	=10	=10
2D/	X 7	.	.	.	.	(>4c\	Do-	.	.	.	.
.	X 6	.	.	.	.	4B\)	-mum	.	.	.	.
=11	=11	=11	=11	=11	=11	=11	=11	=11-	=11	=11	=11
!	!	!	!	!LO:N:vis=00	!	!	!	!	!	!	!
4C/	.	.	.	0r	.	4c\	.	4c/	Ni-	.	.
4BB/	X 6	.	.	.	.	4r	.	4g\	-ſi	.	.
=12	=12	=12	=12	=12	=12	=12-	=12	=12	=12	=12	=12
!	!	!	!	!	!	!LO:N:vis=00	!	!	!	!	!
2C/	.	.	.	.	.	0r	.	8e\	Do-	.	.
.	.	.	.	.	.	.	.	8d\	-mi-	.	.
.	.	.	.	.	.	.	.	8c/	-nus	.	.
.	.	.	.	.	.	.	.	8d\	ae-	.	.
=13	=13	=13	=13	=13	=13	=13	=13	=13	=13	=13	=13
!	!	!LO:N:vis=0	!LO:N:vis=0	!	!	!	!	!	!	!LO:N:vis=0	!
4c\	.	1r	1r	.	.	.	.	4e\	-di-	1r	.
4A\	X 5	.	.	.	.	.	.	4f\	-fi-	.	.
=14	=14	=14	=14	=14	=14	=14	=14	=14	=14	=14	=14
4B\	6 5	.	.	.	.	.	.	4g\	-ca-	.	.
4c\	.	.	.	.	.	.	.	8e\	-ve-	.	.
.	.	.	.	.	.	.	.	8e\	-rit	.	.
=15	=15	=15	=15	=15	=15	=15	=15	=15	=15	=15	=15
*	*	*	*	*	*	*	*	*2\right	*	*	*
!	!	!	!	!LO:N:vis=00	!	!	!	!	!	!	!
4c\	4 2	2r	2r	0r	.	.	.	2d\	Do-	2r	.
!LO:LB:g=original	!	!	!	!	!	!	!	!	!	!	!
4B\	.	.	.	.	.	.	.	.	.	.	.
=16	=16	=16	=16	=16	=16	=16	=16	=16	=16	=16	=16
!	!	!	!	!	!	!LO:N:vis=00	!	!	!	!	!
4c\	.	4g/	4g/	.	.	0r	.	4c/	-mum	4g/	Ni-
4d\	.	4dd\	4dd\	.	.	.	.	4r	.	4dd\	-ſi
=17	=17	=17	=17	=17	=17	=17	=17	=17	=17	=17	=17
*2\right	*	*	*	*	*	*	*	*	*	*	*
!	!	!	!	!	!	!	!	!LO:N:vis=00	!	!	!
2G\	.	8b/L	8b/L	.	.	.	.	0r	.	8b\	Do-
.	.	8a/	8a/	.	.	.	.	.	.	8a\	-mi-
.	.	8g/	8g/	.	.	.	.	.	.	8g/	-nus
.	.	8a/J	8a/J	.	.	.	.	.	.	8a\	ae-
=18	=18	=18	=18	=18	=18	=18	=18	=18	=18	=18	=18
4G\	.	4b\	4b\	.	.	.	.	.	.	4b\	-di-
4E\	X 6	4cc\	4cc\	.	.	.	.	.	.	4cc\	-fi-
=19	=19	=19	=19	=19	=19	=19	=19	=19	=19	=19	=19
!	!	!	!	!LO:N:vis=0	!	!	!	!	!	!	!
4F#X\	.	4dd\	4dd\	1r	.	.	.	.	.	4dd\	-ca-
4G\	.	4b\	4b/	.	.	.	.	.	.	8b\	-ve-
.	.	.	.	.	.	.	.	.	.	8b\	-rit
!	!	!LO:LB:g=original	!	!	!	!	!	!	!	!	!
=20	=20	=20	=20	=20	=20	=20	=20	=20	=20	=20	=20
*	*	*2\right	*	*	*	*	*	*	*	*2\right	*
!	!	!	!	!	!	!LO:N:vis=0	!	!	!	!	!
4G\	4 2	2a/	2a/	.	.	1r	.	.	.	2a\	Do-
4F#X\	6 5	.	.	.	.	.	.	.	.	.	.
=21	=21	=21	=21	=21	=21	=21	=21	=21	=21	=21	=21
2G\	.	2g/	2g/	2r	.	.	.	2r	.	2g/	-mum
!	!	!	!	!LO:PB:g=original	!	!LO:PB:g=original	!	!	!	!	!
=22	=22	=22	=22	=22-	=22	=22	=22	=22-	=22	=22	=22
!	!	!	!	!	!	!LO:TX:a:t=cla	!	!	!	!	!
4GG/	.	4b\	4b\	4GG/	Ni-	4d\	Ni-	4g\	Ni-	4b\	Ni-
4D\	x #	4dd\	4dd\	4D/	-si	4d\	-si	4f#X\	-ſi	4a\	-ſi
=23	=23	=23	=23	=23	=23	=23	=23	=23	=23	=23	=23
8BB/L	.	4gg\	4gg\	8BB/	Do-	8d\	Do-	8g\	Do-	8b\	Do-
8AA/	.	.	.	8AA/	-mi-	8d\	-mi-	8g\	-mi-	8b\	-mi-
8GG/	.	8b/L	8b/L	8GG/	-nus	8d\	-n(us)	8g\	-n(us)	8b\	-n(us)
8AA/J	.	8cc/J	8b/J	8AA/	ae-	8d\	ae-	8g\	ae-	8b\	ae-
!	!	!	!	!	!	!	!	!	!	!LO:LB:g=original	!
=24	=24	=24	=24	=24	=24	=24	=24	=24	=24	=24	=24
4BB/	X 6	4dd\	4dd\	4BB/	-di-	4d\	-di-	4g\	-di-	4b\	-di-
4C/	6 5	4ee\	4ee\	4C/	-fi-	4e\	-fi-	4g\	-fi-	4a\	-fi-
!	!	!	!LO:LB:g=original	!	!	!	!	!	!	!	!
=25	=25	=25	=25	=25	=25	=25	=25	=25	=25	=25	=25
4D/	x #	4ff#X\	4ff#X\	4D/	-ca-	4A/	-ca-	4f#X\	-ca-	4a\	-ca-
4AA/	X 6	4gg\	4gg\	8BB/	-ve-	8d\	-ve-	8g\	-ve-	8b\	-ve-
.	.	.	.	8BB/	-rit	8d\	-rit	8g\	-rit	8b\	-rit
=26	=26	=26	=26	=26	=26	=26	=26	=26	=26	=26	=26
2GG/	X 7	4gg\	4gg\	2AA/	Do-	(>4c\	Do-	(>4g\	Do-	2cc\	do-
.	X 6	4ff#X\	4ff#X\	.	.	4A\)	.	4f#X\)	.	.	.
=27	=27	=27	=27	=27	=27	=27	=27	=27	=27	=27	=27
*	*	*	*2\right	*	*	*2\right	*	*	*	*	*
2GG/	.	2gg\	2gg\	2GG/	-mum	2d\	-mum	2g\	-mum	2b\	-mum
=28	=28	=28	=28	=28	=28	=28	=28	=28	=28	=28	=28
4C/	.	4ee\	4ee\	4C/	Ni-	4c\	Ni-	4g\	Ni-	4ee\	Ni-
4G\	.	4gg\	4gg\	4G\	-ſi	4B\	-ſi	4g\	-ſi	4dd\	-ſi
=29	=29	=29	=29	=29	=29	=29	=29	=29	=29	=29	=29
8E\L	X 6	4ccc\	4ccc\	8E\	Do-	8c\	Do-	8g\	Do-	8ee\	Do-
8D\	.	.	.	8D/	-mi-	8c\	-mi-	8g\	-mi-	8ee\	-mi-
8C\	.	4gg\	4gg\	8C/	-n(us)	8c\	-n(us)	8g\	-n(us)	8ee\	-n(us)
8D\J	.	.	.	8D/	ae-	8c\	ae-	8g\	ae-	8ee\	ae-
!LO:LB:g=original	!	!	!	!	!	!	!	!	!	!	!
=30	=30	=30	=30	=30	=30	=30	=30	=30	=30	=30	=30
4E\	.	4gg\	4gg\	4E\	-di-	4c\	-di-	4g\	-di-	4ee\	-di-
4F\	6 5	8ff\L	8ff\L	4F\	-fi-	4c\	-fi-	4a\	-fi-	4dd\	-fi-
.	.	8ee\J	8ee\J	.	.	.	.	.	.	.	.
!	!	!	!	!LO:LB:g=original	!	!LO:LB:g=original	!	!	!	!	!
=31	=31	=31	=31	=31	=31	=31	=31	=31	=31	=31	=31
4G\	.	4dd\	4dd\	4G\	-ca-	4B\	-ca-	4d\	-ca-	4dd\	-ca-
4E\	X 6	4ee\	4ee\	8E\	-ve-	8c\	-ve-	8g\	-ve-	8ee\	-ve-
.	.	.	.	8E\	-rit	8c\	-rit	8g\	-rit	8ee\	-rit
=32	=32	=32	=32	=32	=32	=32	=32	=32	=32	=32	=32
2D/	x 7	2ff\	2ff\	2D/	Do-	(>4c\	Do-	2d\	Do-	2ff\	Do-
.	X 6	.	.	.	.	4B\)	.	.	.	.	.
=33	=33	=33	=33	=33	=33	=33	=33	=33	=33	=33	=33
4C/	.	4ee\	4ee\	4C/	mum	4c\	-mum	4g\	-mu(m)	4ee\	-mum
4G#X\	X 6	4ee\	4ee\	4G#X\	in	4B\	in	4e\	in	4ee\	in
=34	=34	=34	=34	=34	=34	=34	=34	=34	=34	=34	=34
2A\	x -	4ee\	4ee\	4A\	Va-	4c\	Va-	4e\	Va-	4ee\	Va-
.	.	4ee\	4ee\	4A\	-num	4c\	-nu(m)	4e\	-nu(m)	4ee\	-nu(m)
=35	=35	=35	=35	=35	=35	=35	=35	=35	=35	=35	=35
8r	.	8r	8r	8r	.	8r	.	8r	.	8r	.
8E\L	.	8ee\L	8ee\L	8E\	La-	8B\	la-	8g#X\	La-	8ee\	La-
!	!	!	!	!	!	!	!	!LO:LB:g=original	!	!LO:LB:g=original	!
8E\	X #	8ee\	8ee\	8E\	-bo-	8B\	-bo-	8g#X\	-bo-	8ee\	-bo-
8E\J	.	8ee\J	8ee\J	8E\	-ra-	8B\	-ra-	8g#\	-ra-	8ee\	-ra-
=36	=36	=36	=36	=36	=36	=36	=36	=36	=36	=36	=36
2F\	X 5	4aa\	4aa\	4F\	-ve-	4A/	-ve-	4a\	-ve-	4cc\	-ve-
.	.	4a/	4a/	4F\	-runt	4A/	-runt	4a\	-runt	4cc\	-runt
!	!	!LO:LB:g=original	!	!	!	!	!	!	!	!	!
=37	=37	=37	=37	=37	=37	=37	=37	=37	=37	=37	=37
4r	.	4r	4r	4r	.	4r	.	4r	.	4r	.
4C/	X 5	4ee\	4ee\	8C/	qui	8A/	qui	8a\	qui	8ee\	qui
.	.	.	.	8C/	ae-	8A/	ae-	8a\	ae-	8ee\	ae-
=38	=38	=38	=38	=38	=38	=38	=38	=38	=38	=38	=38
4D/	X -	4dd\	4dd\	4D/	-di-	4A/	-di-	4f\	-di-	4dd\	-di-
4AA/	.	4cc\	4cc\	8AA/	-fi-	8A/	-fi-	8e\	-fi-	8cc\	-fi-
.	.	.	.	8AA/	-cant	8A/	-cant	8e\	-cant	8cc\	-cant
!	!	!	!LO:LB:g=original	!	!	!	!	!	!	!	!
=39	=39	=39	=39	=39	=39	=39	=39	=39	=39	=39	=39
*	*	*	*	*2\right	*	*	*	*	*	*	*
4E\	X 4	2b/	2b/	2E\	e-	4A/	e-	2e\	e-	2b\	e-
4EE/	x #	.	.	.	.	4G#X/	.	.	.	.	.
!	!	!	!	!LO:LB:g=original	!	!LO:LB:g=original	!	!	!	!	!
=40	=40	=40	=40	=40	=40	=40	=40	=40	=40	=40	=40
2AA/	x -	2a/	2a/	2AA/	-am	2A/	-am	2e\	-am	2a\	-am
=41	=41	=41	=41	=41	=41	=41	=41	=41	=41	=41	=41
!	!	!	!	!	!	!LO:TX:a:t=cla	!	!	!	!	!
4C/	.	4cc\	4cc\	4C/	Ni-	4G/	Ni-	4e\	Ni-	4cc\	Ni-
4BB/	X 6	4gg\	4gg\	4G\	-si	4G/	-ſi	4g\	-ſi	4gg\	-ſi
=42	=42	=42	=42	=42	=42	=42	=42	=42	=42	=42	=42
2C/	.	8ee\L	8ee\L	8c\	Do-	8c\	Do-	8g\	Do-	8ee\	Do-
.	.	8dd\	8dd\	8G\	-mi-	8c\	-mi-	8g\	-mi-	8dd\	-mi-
.	.	8cc\	8cc\	4C/	-nus	4c\	-n(us)	4g\	-n(us)	(>8cc\L	-nus
.	.	8dd\J	8dd\J	.	.	.	.	.	.	8dd\J)	.
=43	=43	=43	=43	=43	=43	=43	=43	=43	=43	=43	=43
4c\	.	4ee\	4ee\	4c\	Cu-	4c\	Cu-	4g\	Cu-	4ee\	Cu-
4A\	X 6	4ff\	4ff\	4A\	-ſto-	4c\	-ſto-	4f\	-ſto-	4ff\	-ſto-
=44	=44	=44	=44	=44	=44	=44	=44	=44	=44	=44	=44
4B\	6 5	4gg\	4gg\	8B\	-di-	8d\	-di-	8f\	-di-	8gg\	-di-
.	.	.	.	16B\	-e-	16d\	-e-	16f\	-e-	16gg\	-e-
.	.	.	.	16B\	-rit	16d\	-rit	16f\	-rit	16gg\	-rit
4c\	.	4ee\	4ee\	8c\	Ci-	8G/	Ci-	8e\	Ci-	8ee\	Ci-
.	.	.	.	8c\	-vi-	8G/	-vi-	8e\	-vi-	8ee\	-vi-
!	!	!	!	!	!	!	!	!	!	!LO:PB:g=original	!
=45	=45	=45	=45	=45	=45	=45	=45	=45	=45	=45	=45
!	!	!	!LO:SIC:s=2dd	!	!	!	!	!	!	!	!
4c\	4 2	2dd\	2cc\	(>4c\	-ta-	2G/	-ta-	2f\	-ta-	2dd\	-ta-
4B\	.	.	.	4B\)	-tem	.	.	.	.	.	.
!	!	!	!	!	!	!	!	!LO:LB:g=original	!	!	!
=46	=46	=46	=46	=46	=46	=46	=46	=46	=46	=46	=46
4c\	4 2	4cc\	4cc\	4c\	'	4G/	-tem	4e\	-tem	4cc\	-tem
!LO:PB:g=original	!	!	!	!	!	!	!	!	!	!	!
4G#X\	.	4ee\	4ee\	8G#X\	fru-	8B\	fru-	8e\	fru-	8ee\	fru-
.	.	.	.	8G#\	ſtra	8B\	-ſtra	8e\	-ſtra	8ee\	-ſtra
=47	=47	=47	=47	=47	=47	=47	=47	=47	=47	=47	=47
2A\	.	4cc/	4cc\	8A\	Vi-	8c\	Vi-	8e\	Vi-	8cc\	vi-
.	.	.	.	8A\	-gi-	8c\	-gi-	8e\	-gi-	8cc\	-gi-
.	.	4a/	4a/	4A\	-lat	4c\	-lat	4e\	-lat	4a\	-lat
!	!	!	!	!	!	!LO:LB:g=original	!	!	!	!	!
=48	=48	=48	=48	=48	=48	=48	=48	=48	=48	=48	=48
4r	.	4r	4r	4r	.	4r	.	4r	.	4r	.
4E\	X #	4ee\	4ee\	8E\	qui	8B\	qui	8g#X\	qui	8ee\	qui
!	!	!	!	!LO:LB:g=original	!	!	!	!	!	!	!
.	.	.	.	8E\	Cu-	8B\	Cu-	8g#\	Cu-	8ee\	Cu-
=49	=49	=49	=49	=49	=49	=49	=49	=49	=49	=49	=49
4F\	.	4cc\	4cc\	4F\	-ſto-	4A/	-sto-	4a\	-ſto-	4cc\	-ſto-
4C/	X 6	4cc\	4cc\	4C/	-dit	4A/	-dit	4e\	-dit	4cc\	-dit
=50	=50	=50	=50	=50	=50	=50	=50	=50	=50	=50	=50
4D\	6 5	2b/	2b/	(>4D/	e-	(<4A/	e-	(>4f\	e-	2b\	e-
4E\	X #	.	.	4E\)	.	4G#X/)	.	4e\)	.	.	.
=51	=51	=51	=51	=51	=51	=51	=51	=51	=51	=51	=51
!LO:TX:b:i:t=Baſso	!	!	!	!	!	!	!	!	!	!	!
2AA/	X -	2a/	2a/	2AA/	-am	2A/	-am	2e\	-am	2a\	-am
=52	=52	=52	=52	=52	=52	=52-	=52	=52	=52	=52	=52
!	!	!LO:N:vis=00	!LO:N:vis=00	!	!	!LO:N:vis=00	!	!LO:N:vis=00	!	!LO:N:vis=00	!
4AA/	.	0r	0r	4AA/	Va-	0r	.	0r	.	0r	.
4A\	.	.	.	8AA/	-nu(m)	.	.	.	.	.	.
.	.	.	.	8AA/	eſt	.	.	.	.	.	.
=53	=53	=53	=53	=53	=53	=53	=53	=53	=53	=53	=53
4G#X\	X 6	.	.	4E\	vo-	.	.	.	.	.	.
4E\	X #	.	.	4E\	-bis	.	.	.	.	.	.
=54	=54	=54	=54	=54	=54	=54	=54	=54	=54	=54	=54
4F\	.	.	.	8A\	an-	.	.	.	.	.	.
.	.	.	.	8c\	-te	.	.	.	.	.	.
4D\	X 6	.	.	8B\	lu-	.	.	.	.	.	.
.	.	.	.	8A\	-cem	.	.	.	.	.	.
=55	=55	=55	=55	=55	=55	=55	=55	=55	=55	=55	=55
4.E\	X #	.	.	8G#X\	ſur-	.	.	.	.	.	.
.	.	.	.	8F#X\	-ge-	.	.	.	.	.	.
.	.	.	.	4E\	-re	.	.	.	.	.	.
8D\	.	.	.	.	.	.	.	.	.	.	.
=56	=56	=56	=56	=56	=56	=56	=56	=56	=56	=56	=56
!	!	!LO:N:vis=00	!LO:N:vis=00	!	!	!LO:N:vis=00	!	!LO:N:vis=00	!	!LO:N:vis=00	!
4C/	X 6	0r	0r	8A\	ſur-	0r	.	0r	.	0r	.
.	.	.	.	8A\	-gi-	.	.	.	.	.	.
4BB/	.	.	.	8A\	-te	.	.	.	.	.	.
.	.	.	.	8A\	post-	.	.	.	.	.	.
!	!	!	!	!LO:LB:g=original	!	!	!	!	!	!	!
=57	=57	=57	=57	=57	=57	=57	=57	=57	=57	=57	=57
4AA/	.	.	.	4.A\	-quam	.	.	.	.	.	.
4C/	X 6	.	.	.	.	.	.	.	.	.	.
.	.	.	.	8A\	ſe-	.	.	.	.	.	.
=58	=58	=58	=58	=58	=58	=58	=58	=58	=58	=58	=58
4.D/	X -	.	.	8F\	-de-	.	.	.	.	.	.
.	.	.	.	8E\	-ri-	.	.	.	.	.	.
.	.	.	.	8D/	-tis	.	.	.	.	.	.
8C/	.	.	.	8D/	qui	.	.	.	.	.	.
=59	=59	=59	=59	=59	=59	=59	=59	=59	=59	=59	=59
4BB/	x 6	.	.	4.G\	man-	.	.	.	.	.	.
4AA/	.	.	.	.	.	.	.	.	.	.	.
.	.	.	.	8G\	-du-	.	.	.	.	.	.
=60	=60	=60	=60	=60	=60	=60	=60	=60	=60	=60	=60
!	!	!LO:N:vis=00	!LO:N:vis=00	!	!	!LO:N:vis=0	!	!LO:N:vis=00	!	!LO:N:vis=00	!
4FF/	.	0r	0r	4.G\	-ca-	1r	.	0r	.	0r	.
4BB/	X 6	.	.	.	.	.	.	.	.	.	.
.	.	.	.	8G\	-tis	.	.	.	.	.	.
!LO:LB:g=original	!	!	!	!	!	!	!	!	!	!	!
=61	=61	=61	=61	=61	=61	=61	=61	=61	=61	=61	=61
4C/	.	.	.	4G\	pa-	.	.	.	.	.	.
4F\	.	.	.	8c\	-nem	.	.	.	.	.	.
.	.	.	.	8F\	do-	.	.	.	.	.	.
=62	=62	=62	=62	=62	=62	=62	=62	=62	=62	=62	=62
4G\	.	.	.	(>4G\	-lo-	2r	.	.	.	.	.
4GG/	.	.	.	4GG/)	.	.	.	.	.	.	.
=63	=63	=63	=63	=63	=63	=63-	=63	=63	=63	=63	=63
!LO:TX:b:i:t=Tenor	!	!	!	!	!	!	!	!	!	!	!
4C/	.	.	.	4C/	-ris	4r	.	.	.	.	.
4c\	.	.	.	4r	.	4e\	Cum	.	.	.	.
=64	=64	=64	=64	=64	=64	=64	=64	=64	=64	=64	=64
!	!	!LO:N:vis=00	!LO:N:vis=00	!LO:N:vis=00	!	!	!	!LO:N:vis=00	!	!LO:N:vis=00	!
4B\	.	0r	0r	0r	.	8d\	de-	0r	.	0r	.
.	.	.	.	.	.	8e\	-de-	.	.	.	.
4A\	.	.	.	.	.	8c\	-rit	.	.	.	.
.	.	.	.	.	.	8d\	di-	.	.	.	.
=65	=65	=65	=65	=65	=65	=65	=65	=65	=65	=65	=65
4G\	.	.	.	.	.	8B\L	-le-	.	.	.	.
.	.	.	.	.	.	8c\J	.	.	.	.	.
4F#X\	.	.	.	.	.	(>8A\L	-ctis	.	.	.	.
.	.	.	.	.	.	8B\J)	.	.	.	.	.
!	!	!	!	!	!	!LO:LB:g=original	!	!	!	!	!
=66	=66	=66	=66	=66	=66	=66	=66	=66	=66	=66	=66
4E\	.	.	.	.	.	(<8G/L	ſu-	.	.	.	.
.	.	.	.	.	.	8B/J)	.	.	.	.	.
4C#X/	.	.	.	.	.	(<8A/L	-is	.	.	.	.
.	.	.	.	.	.	8G/J)	.	.	.	.	.
=67	=67	=67	=67	=67	=67	=67	=67	=67	=67	=67	=67
4.D/	x #	.	.	.	.	4F#X/	Som-	.	.	.	.
.	.	.	.	.	.	4D/	-num	.	.	.	.
8C/	.	.	.	.	.	.	.	.	.	.	.
=68	=68	=68	=68	=68	=68	=68	=68	=68	=68	=68	=68
!	!	!LO:N:vis=00	!LO:N:vis=00	!LO:N:vis=00	!	!	!	!LO:N:vis=00	!	!LO:N:vis=00	!
4BB/	.	0r	0r	0r	.	4d\	ec-	0r	.	0r	.
4C/	.	.	.	.	.	8c\	-ce	.	.	.	.
.	.	.	.	.	.	8B\	hae-	.	.	.	.
=69	=69	=69	=69	=69	=69	=69	=69	=69	=69	=69	=69
4D/	X #	.	.	.	.	4A/	-re-	.	.	.	.
4C/	.	.	.	.	.	8B\	-di-	.	.	.	.
.	.	.	.	.	.	8c\	-tas	.	.	.	.
=70	=70	=70	=70	=70	=70	=70	=70	=70	=70	=70	=70
4BB/	.	.	.	.	.	4d\	Do-	.	.	.	.
4C/	.	.	.	.	.	8c\	-mi-	.	.	.	.
.	.	.	.	.	.	8B\	-ni	.	.	.	.
=71	=71	=71	=71	=71	=71	=71	=71	=71	=71	=71	=71
4D/	.	.	.	.	.	4A\	fi-	.	.	.	.
4C/	.	.	.	.	.	8B\	-li-	.	.	.	.
.	.	.	.	.	.	8c\	-i	.	.	.	.
=72	=72	=72	=72	=72	=72	=72	=72	=72	=72	=72	=72
!	!	!LO:N:vis=0	!LO:N:vis=0	!LO:N:vis=0	!	!	!	!LO:N:vis=0	!	!LO:N:vis=0	!
4BB/	.	1r	1r	1r	.	8d\	mer-	1r	.	1r	.
.	.	.	.	.	.	8d\	-ces	.	.	.	.
4C/	.	.	.	.	.	8c\	fru-	.	.	.	.
.	.	.	.	.	.	8B\	-ct(us)	.	.	.	.
=73	=73	=73	=73	=73	=73	=73	=73	=73	=73	=73	=73
!	!	!	!LO:TX:b:t=Verte Cito	!	!	!	!	!	!	!	!
4D/	.	.	.	.	.	2A/	ven-	.	.	.	.
4DD/	X #	.	.	.	.	.	.	.	.	.	.
!	!	!LO:PB:g=original	!LO:PB:g=original	!	!	!	!	!	!	!	!
=74	=74	=74	=74||	=74-	=74	=74	=74	=74-	=74	=74	=74
4GG/	.	4r	4r	4r	.	4G/	-tris	4r	.	4r	.
!LO:TX:b:i:t=Tut	!	!	!	!	!	!	!	!	!	!	!
!LO:LB:g=original	!	!	!	!	!	!LO:LB:g=original	!	!	!	!	!
4G\	.	4g/	4g/	4G\	ſi-	4B\	ſi-	4g\	ſi-	4g/	ſi-
!	!	!	!	!LO:LB:g=original	!	!	!	!	!	!	!
=75	=75	=75	=75	=75	=75	=75	=75	=75	=75	=75	=75
4E\	X 6	4cc\	4cc\	4E\	-cut	4c\	-cut	4g\	-cut	4cc\	-cut
4BB/	X 6	4dd\	4dd\	4BB/	ſa-	4G/	ſa-	4g\	ſa-	4dd\	ſa-
=76	=76	=76	=76	=76	=76	=76	=76	=76	=76	=76	=76
4C/	.	4ee\	4ee\	4C/	-git-	4c\	-git-	4g\	-git-	4ee\	-git-
4GG/	.	4dd\	4dd\	4GG/	-tae	4B\	-tae	4g\	-tae	4dd\	-t(a)e
=77	=77	=77	=77	=77	=77	=77	=77	=77	=77	=77	=77
4r	.	4r	4r	4r	.	4r	.	4r	.	4r	.
4G\	.	4g/	4g/	4G\	in	4B\	in	4g\	in	4g/	in
=78	=78	=78	=78	=78	=78	=78	=78	=78	=78	=78	=78
4E\	x 6	4cc\	4cc\	4E\	ma-	4c\	ma-	4g\	Ma-	4cc\	ma-
!	!	!	!	!	!	!	!	!	!	!LO:LB:g=original	!
4BB/	.	4dd\	4dd\	8BB/	-nu	8G/	-nu	8g\	-nu	8dd\	-nu
.	.	.	.	8BB/	po-	8G/	po-	8g\	po-	8dd\	po-
!	!	!	!	!	!	!	!	!LO:LB:g=original	!	!	!
=79	=79	=79	=79	=79	=79	=79	=79	=79	=79	=79	=79
4C/	.	4ee\	4ee\	4C/	-ten-	4c\	-ten-	4g\	-ten-	4ee\	-ten-
4GG/	.	4dd\	4dd\	4GG/	-tis	4B\	-tis	4g\	-tis	4dd\	-tis
=80	=80	=80	=80	=80	=80	=80	=80	=80	=80	=80-	=80
4r	.	2r	2r	4r	.	2r	.	2r	.	2r	.
8G\L|	.	.	.	8G\	i-	.	.	.	.	.	.
8F\J|	.	.	.	8F\	-ta	.	.	.	.	.	.
=81	=81	=81	=81	=81	=81	=81-	=81	=81-	=81	=81	=81
4E\|	.	4r	4r	4E\	fi-	4r	.	4r	.	4r	.
4E\	6 5	8dd\L	8cc\L	8E\	-li-	8G/	i-	8e\	i-	8cc\	i-
.	.	8b\J	8b\J	8E\	-i	8G/	-ta	8d\	-ta	8b\	-ta
=82	=82	=82	=82	=82	=82	=82	=82	=82	=82	=82	=82
4F\	.	4a/	4a/	4F\	fi-	4A/	fi-	4c/	fi-	4a\	Fi-
4D\	.	8dd\L	8dd\L	8D/	-li-	8A/	-li-	8f\	-li-	8dd\	-li-
.	.	8cc\J	8cc\J	8D/	-i	8A/	-i	8e\	-i	8cc\	-i
=83	=83	=83	=83	=83	=83	=83	=83	=83	=83	=83	=83
4G\	.	4b\	4b\	4G\	ex-	4F/	ex-	4d\	ex-	4b\	ex-
4C/	.	4cc\	4cc\	4c\	-cuſ-	4G/	-cuſ-	4f\	-cuſ-	4cc\	-cus-
!	!	!	!	!LO:LB:g=original	!	!	!	!	!	!	!
=84	=84	=84	=84	=84	=84	=84	=84	=84	=84	=84	=84
4G\	.	4d/	4d/	2G\	-so-	2G/	-so-	2d\	-so-	(>4dd\	-so-
.	x 4	.	.	.	.	.	.	.	.	.	.
4GG/	X 3	4b\	4b/	.	.	.	.	.	.	4b\)	.
=85	=85	=85	=85	=85	=85	=85	=85	=85	=85	=85	=85
!LO:TX:b:i:t=Solo	!	!	!	!	!	!	!	!	!	!	!
4C/	.	4cc\	4cc\	4.C/	-rum	4G/	-rum	4e\	-rum	4cc\	-rum
4c\	.	4r	4r	.	.	4r	.	4g\	Be-	4r	.
.	.	.	.	8r	.	.	.	.	.	.	.
!	!	!	!	!	!	!LO:LB:g=original	!	!	!	!	!
=86	=86	=86	=86	=86	=86	=86	=86	=86	=86	=86	=86
!	!	!LO:N:vis=00	!LO:N:vis=00	!LO:N:vis=00	!	!LO:N:vis=00	!	!	!	!	!
4B\	.	0r	0r	0r	.	0r	.	(>8g\L	-a-	2r	.
.	.	.	.	.	.	.	.	8a\J)	.	.	.
4G\	.	.	.	.	.	.	.	(>8g\L	-tus	.	.
.	.	.	.	.	.	.	.	8f\J)	.	.	.
=87	=87	=87	=87	=87	=87	=87	=87	=87	=87	=87	=87
4c\	.	.	.	.	.	.	.	4f\	Vir	4r	.
4C/	.	.	.	.	.	.	.	4r	.	4g/	Be-
=88	=88	=88	=88	=88	=88	=88	=88	=88	=88	=88	=88
4BB/	.	.	.	.	.	.	.	2r	.	(<8g/L	-a-
.	.	.	.	.	.	.	.	.	.	8a/J)	.
4GG/	.	.	.	.	.	.	.	.	.	(<8g/L	-tus
.	.	.	.	.	.	.	.	.	.	8f/J)	.
!LO:LB:g=original	!	!	!	!	!	!	!	!LO:PB:g=original	!	!	!
=89	=89	=89	=89	=89	=89	=89	=89	=89-	=89	=89	=89
4C/	.	.	.	.	.	.	.	4r	.	4e/	Vir
4E\	X 6	.	.	.	.	.	.	8g\	qui	4r	.
.	.	.	.	.	.	.	.	8g\	im-	.	.
=90	=90	=90	=90	=90	=90	=90	=90	=90	=90	=90	=90
*	*	*	*	*	*	*	*	*Xtuplet	*	*	*
!	!	!	!	!	!	!	!	!	!	!LO:N:vis=0	!
!	!	!LO:N:vis=00	!LO:N:vis=00	!LO:N:vis=00	!	!LO:N:vis=00	!	!	!	!	!
4F\	.	0r	0r	0r	.	0r	.	12a\L	-ple-	1r	.
.	.	.	.	.	.	.	.	12b\	.	.	.
.	.	.	.	.	.	.	.	12a\J	.	.	.
4E\	.	.	.	.	.	.	.	12g\L	.	.	.
.	.	.	.	.	.	.	.	12a\	.	.	.
.	.	.	.	.	.	.	.	12g\J	.	.	.
=91	=91	=91	=91	=91	=91	=91	=91	=91	=91	=91	=91
4D/	.	.	.	.	.	.	.	12f\L	.	.	.
.	.	.	.	.	.	.	.	12g\	.	.	.
.	.	.	.	.	.	.	.	12f\J	.	.	.
4C/	.	.	.	.	.	.	.	12e\L	.	.	.
.	.	.	.	.	.	.	.	12f\	.	.	.
.	.	.	.	.	.	.	.	12e\J	.	.	.
=92	=92	=92	=92	=92	=92	=92	=92	=92	=92	=92-	=92
4GG/	.	.	.	.	.	.	.	8d\	.	4r	.
.	.	.	.	.	.	.	.	8d\	-vit	.	.
4BB/	X 6	.	.	.	.	.	.	4r	.	8dd\	qui
.	.	.	.	.	.	.	.	.	.	8dd\	im-
!	!	!	!	!	!	!	!	!	!	!LO:LB:g=original	!
=93	=93	=93	=93	=93	=93	=93	=93	=93	=93	=93	=93
*	*	*	*	*	*	*	*	*	*	*Xtuplet	*
!	!	!	!	!	!	!	!	!LO:N:vis=0	!	!	!
4C/	.	.	.	.	.	.	.	1r	.	12ee\L	-ple-
.	.	.	.	.	.	.	.	.	.	12ff\	.
.	.	.	.	.	.	.	.	.	.	12ee\J	.
*	*	*	*	*	*	*	*	*	*	*tuplet	*
4BB/	x 6	.	.	.	.	.	.	.	.	12dd\L	.
.	.	.	.	.	.	.	.	.	.	12ee\	.
.	.	.	.	.	.	.	.	.	.	12dd\J	.
=94	=94	=94	=94	=94	=94	=94	=94	=94	=94	=94	=94
*	*	*	*	*	*	*	*	*	*	*Xtuplet	*
!	!	!	!	!	!	!	!	!LO:TX:a:t=P:problem=błąd renderowania - wyświetla się pauza, mimo że została zastąpiona pauzą 2-taktową	!	!	!
!	!	!LO:N:vis=00	!LO:N:vis=00	!LO:N:vis=00	!	!LO:N:vis=00	!	!	!	!	!
4AA/	X 6/	0r	0r	0r	.	0r	.	.	.	12cc\L	.
.	.	.	.	.	.	.	.	.	.	12dd\	.
.	.	.	.	.	.	.	.	.	.	12cc\J	.
4GG/	.	.	.	.	.	.	.	.	.	12b\L	.
.	.	.	.	.	.	.	.	.	.	12cc\	.
.	.	.	.	.	.	.	.	.	.	12b\J	.
=95	=95	=95	=95	=95	=95	=95	=95	=95-	=95	=95	=95
8D/L	X #	.	.	.	.	.	.	4r	.	8a\	.
8E/	.	.	.	.	.	.	.	.	.	8a\	-vit
8D/	.	.	.	.	.	.	.	8f#X\	de-	8a\	de-
8C/J	.	.	.	.	.	.	.	8f#\	-si-	8a\	-ſi-
=96	=96	=96	=96	=96	=96	=96	=96	=96	=96	=96	=96
4BB/	X 6	.	.	.	.	.	.	4g\	-de-	4dd\	-de-
4C/	.	.	.	.	.	.	.	8a\	-rium	8cc\	-ri
.	.	.	.	.	.	.	.	8g\	.	8b\	-um
=97	=97	=97	=97	=97	=97	=97	=97	=97	=97	=97	=97
4D/	.	.	.	.	.	.	.	4f#X\	ſu-	4a\	ſu-
4GG/	.	.	.	.	.	.	.	8g\	-um	8b\	-u(m)
.	.	.	.	.	.	.	.	8a\	ex	8cc\	ex
=98	=98	=98	=98	=98	=98	=98	=98	=98	=98	=98	=98
!	!	!LO:N:vis=00	!LO:N:vis=00	!LO:N:vis=00	!	!LO:N:vis=00	!	!	!	!	!
4D\	X #	0r	0r	0r	.	0r	.	2f#X\	i-	2a\	i-
4DD/	.	.	.	.	.	.	.	.	.	.	.
=99	=99	=99	=99	=99	=99	=99	=99	=99	=99	=99	=99
4GG/	.	.	.	.	.	.	.	8g\	-psis	8b\	-pſis
.	.	.	.	.	.	.	.	8g\	'non	8r	.
!	!	!	!	!	!	!	!	!LO:LB:g=original	!	!	!
4E\	x 6	.	.	.	.	.	.	8g\	Con-	4r	.
.	.	.	.	.	.	.	.	8g\	-fun-	.	.
=100	=100	=100	=100	=100	=100	=100	=100	=100	=100	=100	=100
!	!	!	!	!	!	!	!	!	!	!LO:N:vis=0	!
4F\	.	.	.	.	.	.	.	12a\L	-de-	1r	.
.	.	.	.	.	.	.	.	12b\	.	.	.
.	.	.	.	.	.	.	.	12a\J	.	.	.
4E\	.	.	.	.	.	.	.	12g\L	.	.	.
.	.	.	.	.	.	.	.	12a\	.	.	.
.	.	.	.	.	.	.	.	12g\J	.	.	.
=101	=101	=101	=101	=101	=101	=101	=101	=101	=101	=101	=101
4D/	.	.	.	.	.	.	.	12f\L	.	.	.
.	.	.	.	.	.	.	.	12g\	.	.	.
.	.	.	.	.	.	.	.	12f\J	.	.	.
4C/	.	.	.	.	.	.	.	12e\L	.	.	.
.	.	.	.	.	.	.	.	12f\	.	.	.
.	.	.	.	.	.	.	.	12e\J	.	.	.
=102	=102	=102	=102	=102	=102	=102	=102	=102	=102	=102-	=102
!	!	!LO:N:vis=00	!LO:N:vis=00	!LO:N:vis=00	!	!LO:N:vis=00	!	!	!	!	!
4FF/	.	0r	0r	0r	.	0r	.	8d\	.	8r	.
.	.	.	.	.	.	.	.	8d\	-tur	8dd\	Non
4BB/	X 6	.	.	.	.	.	.	4r	.	8dd\	Con-
.	.	.	.	.	.	.	.	.	.	8dd\	-fun-
!LO:LB:g=original	!	!	!	!	!	!	!	!	!	!	!
=103	=103	=103	=103	=103	=103	=103	=103	=103-	=103	=103	=103
!	!	!	!	!	!	!	!	!LO:N:vis=0	!	!	!
4C/	.	.	.	.	.	.	.	1r	.	12ee\L	-de-
.	.	.	.	.	.	.	.	.	.	12ff\	.
.	.	.	.	.	.	.	.	.	.	12ee\J	.
*	*	*	*	*	*	*	*	*	*	*tuplet	*
4BB/	.	.	.	.	.	.	.	.	.	12dd\L	.
.	.	.	.	.	.	.	.	.	.	12ee\	.
.	.	.	.	.	.	.	.	.	.	12dd\J	.
=104	=104	=104	=104	=104	=104	=104	=104	=104	=104	=104	=104
!	!	!	!	!	!	!	!	!LO:TX:a:t=P:problem=błąd renderowania - wyświetla się pauza, mimo że została zastąpiona pauzą 2-taktową	!	!	!
4AA/	X 6/	.	.	.	.	.	.	.	.	12cc\L	.
.	.	.	.	.	.	.	.	.	.	12dd\	.
.	.	.	.	.	.	.	.	.	.	12cc\J	.
*	*	*	*	*	*	*	*	*	*	*Xtuplet	*
!	!	!	!	!	!	!	!	!	!	!LO:LB:g=original	!
4GG/	.	.	.	.	.	.	.	.	.	12b\L	.
.	.	.	.	.	.	.	.	.	.	12cc\	.
.	.	.	.	.	.	.	.	.	.	12b\J	.
=105	=105	=105	=105	=105	=105	=105	=105	=105	=105	=105	=105
8D\L	x #	.	.	.	.	.	.	4r	.	8a\	.
8E\J	.	.	.	.	.	.	.	.	.	8a\	-tur
8D/L	.	.	.	.	.	.	.	8f#X\	Cum	8a\	cum
8C/J	.	.	.	.	.	.	.	8f#\	lo-	8a\	lo-
=106	=106	=106	=106	=106	=106	=106	=106	=106	=106	=106	=106
!	!	!LO:N:vis=00	!LO:N:vis=00	!LO:N:vis=00	!	!LO:N:vis=00	!	!	!	!	!
4BB/	x 6	0r	0r	0r	.	0r	.	8g\	-que-	8b\	-que-
.	.	.	.	.	.	.	.	8b\	-tur	8dd\	-tur
4C/	.	.	.	.	.	.	.	8a\	i-	8cc\	i-
.	.	.	.	.	.	.	.	8g\	-ni-	8b\	-ni-
=107	=107	=107	=107	=107	=107	=107	=107	=107	=107	=107	=107
8D\L	.	.	.	.	.	.	.	4f#X\	-mi-	4a\	-mi-
8E\	.	.	.	.	.	.	.	.	.	.	.
8D\	.	.	.	.	.	.	.	4f#\	-cis	4a\	-cis
8C\J	.	.	.	.	.	.	.	.	.	.	.
=108	=108	=108	=108	=108	=108	=108	=108	=108	=108	=108	=108
4BB/	.	.	.	.	.	.	.	8g\L	ſu-	4dd\	ſu-
.	.	.	.	.	.	.	.	8b\J	-is	.	.
4C/	.	.	.	.	.	.	.	8a\	.	8dd\	-is
.	.	.	.	.	.	.	.	8g\	in	8b\	in
=109	=109	=109	=109	=109	=109	=109	=109	=109	=109	=109	=109
4D/	.	.	.	.	.	.	.	(>4g\	por-	2a\	por-
.	X 4	.	.	.	.	.	.	.	.	.	.
4DD/	X #	.	.	.	.	.	.	4f#X\)	.	.	.
.	X 3	.	.	.	.	.	.	.	.	.	.
=110	=110	=110	=110	=110	=110	=110	=110	=110	=110	=110	=110
!	!	!LO:N:vis=00	!LO:N:vis=00	!LO:N:vis=00	!	!LO:N:vis=00	!	!	!	!	!
4GG/	.	0r	0r	0r	.	0r	.	4g\	-ta	4b\	-ta
!	!	!	!	!	!	!	!	!LO:LB:g=original	!	!	!
8G\L	.	.	.	.	.	.	.	8d\	Cum	8b\	Cum
8F\J	X 6	.	.	.	.	.	.	8d\	lo-	8b\	lo-
=111	=111	=111	=111	=111	=111	=111	=111	=111	=111	=111	=111
4E\	X 6	.	.	.	.	.	.	8e\	-que-	8cc\	-que-
.	.	.	.	.	.	.	.	8g\	-tur	8ee\	-tur
4F\	x 3	.	.	.	.	.	.	8f\	i-	8dd\	i-
.	.	.	.	.	.	.	.	8e\	-ni-	8cc\	-ni-
=112	=112	=112	=112	=112	=112	=112	=112	=112	=112	=112	=112
8G\L	.	.	.	.	.	.	.	4d\	-mi-	4b\	-mi-
8A\	.	.	.	.	.	.	.	.	.	.	.
8G\	.	.	.	.	.	.	.	4d\	-cis	4b\	-cis
8F\J	.	.	.	.	.	.	.	.	.	.	.
=113	=113	=113	=113	=113	=113	=113	=113	=113	=113	=113	=113
4E\	X 6	.	.	.	.	.	.	8e\L	ſu-	8cc\L	ſu-
.	.	.	.	.	.	.	.	8g\J	.	8ee\J	.
!	!	!	!	!	!	!	!	!	!	!LO:LB:g=original	!
4F\	6 5	.	.	.	.	.	.	8f\	-is	8dd\	-is
.	.	.	.	.	.	.	.	8e\	in	8cc\	in
=114	=114	=114	=114	=114	=114	=114	=114	=114	=114	=114	=114
!	!	!LO:N:vis=0	!LO:N:vis=0	!LO:N:vis=0	!	!LO:N:vis=0	!	!	!	!	!
4G\|	.	1r	1r	1r	.	1r	.	2d\	por-	4cc\	por-
4GG/	.	.	.	.	.	.	.	.	.	4b\	.
=115	=115	=115	=115	=115	=115	=115	=115	=115	=115	=115	=115
2C/	.	.	.	.	.	.	.	2e\	-ta	2cc\	-ta
=116	=116	=116-	=116-	=116	=116	=116	=116	=116	=116	=116	=116
!LO:TX:b:i:t=Gloria	!	!	!	!	!	!	!	!	!	!	!
!LO:TX:a:i:t=Tut	!	!	!	!	!	!	!	!	!	!	!
4AA/	.	4ee\	4ee\	4A\	Glo-	4c\	Glo-	4e\	glo-	4ee\	Glo-
4A\	.	4ee\	4ee\	8A\	-ri-	8c\	-ri-	8e\	-ri-	8ee\	-ri-
.	.	.	.	8A\	-a	8c\	-a	8e\	-a	8ee\	-a
!LO:LB:g=original	!	!LO:LB:g=original	!	!	!	!	!	!	!	!	!
=117	=117	=117	=117	=117	=117	=117	=117	=117	=117	=117	=117
4G#X\	X 6	4ee\	4ee\	4G#X\	Pa-	4B\	Pa-	4e\	Pa-	4ee\	Pa-
!	!	!	!LO:LB:g=original	!	!	!	!	!	!	!	!
4E\	x #	4ee\	4ee\	8E\	-tri	8B\	-tri	8g#X\	-tri	8ee\	-tri
.	.	.	.	8E\	et	8B\	et	8g#\	et	8ee\	et
=118	=118	=118	=118	=118	=118	=118	=118	=118	=118	=118	=118
4F\	.	4.cc\	4.cc\	4F\	fi-	4.A\	fi-	4a\	fi-	4.cc\	fi-
4D/	X 6	.	.	4BB/	-li-	.	.	4f\	-li-	.	.
.	.	8dd\	8dd\	.	.	8B\	-li-	.	.	8dd\	-li-
=119	=119	=119	=119	=119	=119	=119	=119	=119	=119	=119	=119
4.E\	x #	2b\	2b/	2E\	-o	2G#X/	-o	2e\	-o	2b\	-o
8D/	.	.	.	.	.	.	.	.	.	.	.
=120	=120	=120	=120	=120	=120	=120	=120	=120	=120	=120	=120
4C/	x 6	4ee\	4ee\	4C/	et	4A/	et	4a\	et	4ee\	et
4BB/	x 6/	4ee\	4ee\	4BB/	ſpi-	4B\	ſpi-	4g#X\	ſpi-	4ee\	spi-
=121	=121	=121	=121	=121	=121	=121	=121	=121	=121	=121	=121
4AA/	.	4ee\	4ee\	4AA/	-ri-	4c\	-ri-	4a\	-ri-	4ee\	-ri-
!	!	!	!	!	!	!	!	!LO:LB:g=original	!	!	!
4D\	.	8dd\L	8dd\L	8D/	-tu-	8B\	-tu-	8f\	-tu-	8dd\	-tu-
.	.	8cc\J	8cc\J	8D/	-i	8A/	-i	8f\	-i	8cc\	-i
=122	=122	=122	=122	=122	=122	=122	=122	=122	=122	=122	=122
4E\	X 4	2b/	2b/	2E\	ſan-	4A/	ſan-	2e\	ſan-	2b\	ſan-
.	X 3	.	.	.	.	.	.	.	.	.	.
4EE/	X #	.	.	.	.	4G#X/	.	.	.	.	.
=123	=123	=123	=123	=123	=123	=123	=123	=123	=123	=123	=123
2AA/	.	2a/	2a/	2AA/	cto	2A/	-cto	2e\	-cto	2a\	-cto
=124	=124	=124	=124	=124	=124	=124	=124	=124	=124	=124	=124
!LO:TX:b:i:t=Solo	!	!LO:TX:a:t=15	!	!	!	!	!	!	!	!	!
!	!	!	!	!	!	!LO:N:vis=00	!	!LO:N:vis=00	!	!LO:N:vis=00	!
!	!	!LO:N:vis=00	!LO:N:vis=00	!	!	!	!	!	!	!	!
4C/|	.	0r	0r	4C/|	ſi-	0r	.	0r	.	0r	.
!	!	!	!	!LO:LB:g=original	!	!	!	!	!	!	!
4G\|	.	.	.	4G\	-cut	.	.	.	.	.	.
=125	=125	=125	=125	=125	=125	=125	=125	=125	=125	=125	=125
8E\L|	.	.	.	8E\	e-	.	.	.	.	.	.
8D\|	.	.	.	8D/	-rat	.	.	.	.	.	.
8C\|	.	.	.	8C/	in	.	.	.	.	.	.
8D\J|	.	.	.	8D/	prin-	.	.	.	.	.	.
=126	=126	=126	=126	=126	=126	=126	=126	=126	=126	=126	=126
4E\|	.	.	.	8E\	-ci-	.	.	.	.	.	.
.	.	.	.	8E\	-pi-	.	.	.	.	.	.
4F\|	.	.	.	8F\	-o	.	.	.	.	.	.
.	.	.	.	8F\	et	.	.	.	.	.	.
=127	=127	=127	=127	=127	=127	=127	=127	=127	=127	=127	=127
4G\|	.	.	.	4G\	nunc	.	.	.	.	.	.
4E\|	.	.	.	4E\	et	.	.	.	.	.	.
=128	=128	=128	=128	=128	=128	=128	=128	=128	=128	=128	=128
!	!	!LO:N:vis=00	!LO:N:vis=00	!	!	!	!	!LO:N:vis=00	!	!LO:N:vis=00	!
2D/	.	0r	0r	2D/	ſem-	2r	.	0r	.	0r	.
!	!	!	!	!	!	!LO:LB:g=original	!	!	!	!	!
=129	=129	=129	=129	=129	=129	=129	=129	=129	=129	=129	=129
4C/	.	.	.	4C/	-per	4G/	ſi-	.	.	.	.
4D/	X #	.	.	4r	.	4d\	-cut	.	.	.	.
=130	=130	=130	=130	=130	=130	=130	=130	=130	=130	=130	=130
!	!	!	!	!LO:N:vis=00	!	!	!	!	!	!	!
2GG/	.	.	.	0r	.	8B\	e-	.	.	.	.
.	.	.	.	.	.	8A/	-rat	.	.	.	.
.	.	.	.	.	.	8G/	in	.	.	.	.
.	.	.	.	.	.	8A/	prin-	.	.	.	.
=131	=131	=131	=131	=131	=131	=131	=131	=131	=131	=131	=131
4G\	.	.	.	.	.	8B\	-ci-	.	.	.	.
.	.	.	.	.	.	8G/	-pi-	.	.	.	.
4E\	x 6	.	.	.	.	8c\	-o	.	.	.	.
.	.	.	.	.	.	8B\	et	.	.	.	.
!LO:LB:g=original	!	!	!	!	!	!	!	!	!	!	!
=132	=132	=132	=132	=132	=132	=132	=132	=132	=132	=132	=132
!	!	!LO:N:vis=00	!LO:N:vis=00	!	!	!	!	!LO:N:vis=0	!	!LO:N:vis=00	!
4F\	.	0r	0r	.	.	8A\L	nunc	1r	.	0r	.
.	.	.	.	.	.	8B\J	.	.	.	.	.
4E\	x 6	.	.	.	.	4c\	et	.	.	.	.
=133	=133	=133	=133	=133	=133	=133	=133	=133	=133	=133	=133
2D/	X 6	.	.	.	.	(>4c\	ſem-	.	.	.	.
.	.	.	.	.	.	4B\)	.	.	.	.	.
=134	=134	=134	=134	=134	=134	=134	=134	=134-	=134	=134	=134
!	!	!	!	!LO:N:vis=00	!	!	!	!	!	!	!
4C/	.	.	.	0r	.	4c\	-per	4c/	ſi-	.	.
4BB/	x 6	.	.	.	.	4r	.	4g\	-cut	.	.
=135	=135	=135	=135	=135	=135	=135	=135	=135	=135	=135	=135
!	!	!	!	!	!	!LO:N:vis=00	!	!	!	!	!
2C/	.	.	.	.	.	0r	.	8e\	e-	.	.
.	.	.	.	.	.	.	.	8d\	-rat	.	.
.	.	.	.	.	.	.	.	8c/	in	.	.
.	.	.	.	.	.	.	.	8d\	prin-	.	.
=136	=136	=136	=136	=136	=136	=136	=136	=136	=136	=136	=136
!	!	!LO:N:vis=0	!LO:N:vis=0	!	!	!	!	!	!	!LO:N:vis=0	!
4c\	.	1r	1r	.	.	.	.	8e\	-ci-	1r	.
.	.	.	.	.	.	.	.	8e\	-pi-	.	.
4A\	X 6	.	.	.	.	.	.	8g\	-o	.	.
.	.	.	.	.	.	.	.	8g\	'et	.	.
=137	=137	=137	=137	=137	=137	=137	=137	=137	=137	=137	=137
4B\	6 5	.	.	.	.	.	.	4g\	nunc	.	.
4c\	.	.	.	.	.	.	.	4e\	et	.	.
=138	=138	=138	=138	=138	=138	=138	=138	=138	=138	=138	=138
!	!	!	!	!LO:N:vis=00	!	!	!	!	!	!	!
4c\	4 2	2r	2r	0r	.	.	.	2d\	ſem-	2r	.
4B\	.	.	.	.	.	.	.	.	.	.	.
=139	=139	=139-	=139-	=139	=139	=139	=139	=139	=139	=139-	=139
!	!	!	!	!	!	!LO:N:vis=00	!	!	!	!	!
4c\	.	4g/	4g/	.	.	0r	.	4c/	-per	4g/	ſi-
4d\	.	4dd\	4dd\	.	.	.	.	4r	.	4dd\	-cut
!	!	!	!	!	!	!	!	!	!	!LO:LB:g=original	!
=140	=140	=140	=140	=140	=140	=140	=140	=140-	=140	=140	=140
!	!	!	!	!	!	!	!	!LO:N:vis=00	!	!	!
2G\	.	8b/L	8b/L	.	.	.	.	0r	.	8b\	e-
.	.	8g/	8g/	.	.	.	.	.	.	8a\	-rat
.	.	8a/	8a/	.	.	.	.	.	.	8g/	in
.	.	8b/J	8b/J	.	.	.	.	.	.	8a\	prin-
=141	=141	=141	=141	=141	=141	=141	=141	=141	=141	=141	=141
4G\	.	4b\	4b/	.	.	.	.	.	.	8b\	-ci-
.	.	.	.	.	.	.	.	.	.	8b\	-pi-
4E\	X 6	4cc\	4cc\	.	.	.	.	.	.	8cc\	-o
.	.	.	.	.	.	.	.	.	.	8cc\	et
=142	=142	=142	=142	=142	=142	=142	=142	=142	=142	=142	=142
!	!	!	!	!LO:N:vis=0	!	!	!	!	!	!	!
4F#X\	6 5	4dd\	4dd\	1r	.	.	.	.	.	4dd\	nunc
4G\	.	4b\	4b/	.	.	.	.	.	.	4b\	et
=143	=143	=143	=143	=143	=143	=143	=143	=143	=143	=143	=143
!	!	!	!	!	!	!LO:N:vis=0	!	!	!	!	!
4G\	4 2	2a/	2a/	.	.	1r	.	.	.	2a\	ſem-
4F#X\	6 5	.	.	.	.	.	.	.	.	.	.
=144	=144	=144	=144	=144	=144	=144	=144	=144	=144	=144	=144
2G\	.	2g/	2g/	2r	.	.	.	2r	.	2g/	-per
=145	=145	=145	=145	=145-	=145	=145	=145	=145-	=145	=145	=145
!	!	!	!	!	!	!LO:TX:a:t=cla	!	!	!	!	!
4GG/	.	4b\	4b\	4GG/	Et	4d\	Et	4g\	et	4b\	et
4D/	X #	4dd\	4dd\	4D/	in	4d\	in	4f#X\	in	4a\	in
!	!	!LO:LB:g=original	!	!	!	!	!	!	!	!	!
=146	=146	=146	=146	=146	=146	=146	=146	=146	=146	=146	=146
8BB/L	.	4gg\	4gg\	8BB/L	ſae-	4d\	ſae-	4g\	ſae-	4b\	ſae-
8AA/	.	.	.	8AA/J	.	.	.	.	.	.	.
!	!	!	!LO:LB:g=original	!	!	!	!	!LO:LB:g=original	!	!	!
8GG/	.	8b\L	8b\L	8GG/	-cu-	8d\	-cu-	8g\	-cu-	8b\	-cu-
8AA/J	.	8cc\J	8cc\J	8AA/	-la	8d\	-la	8g\	-la	8b\	-la
!	!	!	!	!LO:LB:g=original	!	!LO:LB:g=original	!	!	!	!	!
=147	=147	=147	=147	=147	=147	=147	=147	=147	=147	=147	=147
4BB/	x 6	4dd\	4dd\	4BB/	ſae-	4d\	ſae-	4g\	ſae-	4b\	ſae-
4C/	6 5	4ee\	4ee\	4C/	-cu-	4e\	-cu-	4g\	-cu-	4a\	-cu-
!LO:LB:g=original	!	!	!	!	!	!	!	!	!	!	!
=148	=148	=148	=148	=148	=148	=148	=148	=148	=148	=148	=148
4D/	X #	4ff#X\	4ff#X\	4D/	-lo-	4A/	-lo-	4f#X\	-lo-	4a\	-lo-
4BB/	X 6	4gg\	4gg\	4BB/	-ru(m)	4d\	-ru(m)	4g\	-ru(m)	4b\	-rum
=149	=149	=149	=149	=149	=149	=149	=149	=149	=149	=149	=149
2AA/	X 7	4gg\	4gg\	2AA/	A-	(>4c\	A-	(>4g\	A-	2cc\	A-
!	!	!	!LO:SIC:s=ff#	!	!	!	!	!	!	!	!
.	X 6/	4ff#X\	4gg#X\	.	.	4A/)	.	4f#X\)	-men	.	.
=150	=150	=150	=150	=150	=150	=150	=150	=150	=150	=150	=150
2GG/	.	2gg\	2gg\	2GG/	-men	2d\	-men	2g\	'	2b\	-men
=151	=151	=151	=151	=151	=151	=151	=151	=151	=151	=151	=151
4C/	.	4ee\	4ee\	4C/	Et	4c\	et	4g\	et	4ee\	et
4G\	.	4gg\	4gg\	4G\	in	4B\	in	4g\	in	4dd\	in
!	!	!	!	!	!	!	!	!	!	!LO:LB:g=original	!
=152	=152	=152	=152	=152	=152	=152	=152	=152	=152	=152	=152
8E\L	X 6	4ccc\	4ccc\	(>8E\L	ſae-	4c\	ſae-	4g\	ſae-	4ee\	ſae-
8D\	.	.	.	8D\J)	.	.	.	.	.	.	.
8C\	.	4gg\	4gg\	8C/	-cu-	8c\	-cu-	8g\	-cu-	8ee\	-cu-
8D\J	.	.	.	8D/	-la	8c\	-la	8g\	-la	8ee\	-la
=153	=153	=153	=153	=153	=153	=153	=153	=153	=153	=153	=153
4E\	.	4gg\	4gg\	4E\	ſae-	4d\	ſae-	4g\	ſae-	4ee\	ſae-
4F\	6 5	8ff\L	8ff\L	4F\	-cu-	4c\	-cu-	4a\	-cu-	4dd\	-cu-
.	.	8ee\J	8ee\J	.	.	.	.	.	.	.	.
=154	=154	=154	=154	=154	=154	=154	=154	=154	=154	=154	=154
4G\	.	4dd\	4dd\	4G\	-lo-	4B\	-lo-	4d\	-lo-	4dd\	-lo-
4E\	X 6	4ee\	4ee\	4E\	-rum	4c\	-ru(m)	4g\	-ru(m)	4ee\	-ru(m)
=155	=155	=155	=155	=155	=155	=155	=155	=155	=155	=155	=155
2D/	X 7	2ff\	2ff\	2D/	A-	(>4c\	A-	2d\	A-	2ff\	A-
.	X 6	.	.	.	.	(>4B\)	.	.	.	.	.
=156	=156	=156	=156	=156	=156	=156	=156	=156	=156	=156	=156
2C/	.	2ee\	2ee\	2C/	-men	2c\)	-men	2g\	-men	2ee\	-men
=157	=157	=157	=157	=157	=157	=157	=157	=157	=157	=157	=157
*	*	*	*	*	*	*	*ij	*	*ij	*	*ij
!LO:TX:b:i:t=Tut	!	!	!	!	!	!	!	!	!	!	!
4C/	.	4cc\	4cc\	4C/	A-	4c\	A-	4g\	A-	4cc\	A-
4BB/	x 6	4gg\	4gg\	4BB/	-men	4G/	-men	4g\	-men	4gg\	.
!	!	!	!	!	!	!LO:LB:g=original	!	!	!	!	!
=158	=158	=158	=158	=158	=158	=158	=158	=158	=158	=158	=158
*	*	*	*	*	*ij	*	*	*	*	*	*
2C/	.	8ee\L	8ee\L	4C/	A-	4c\	A-	4g\	A-	(>8ee\L	-men
.	.	8dd\	8dd\	.	.	.	.	.	.	8dd\J)	.
.	.	8cc\	8cc\	4C/	-men	4c\	-men	4g\	-men	(>8cc\L	.
.	.	8dd\J	8dd\J	.	.	.	.	.	.	8dd\J)	.
!	!	!	!	!	!	!	!	!LO:LB:g=original	!	!	!
=159	=159	=159	=159	=159	=159	=159	=159	=159	=159	=159	=159
4C/	.	4ee\	4ee\	4C/	A-	4c\	A-	4g\	A-	4ee\	A-
!	!	!	!	!LO:LB:g=original	!	!	!	!	!	!	!
4AA/	X 6	4ff\	4ff\	4AA/	-men	4c\	-men	4f\	-men	4ff\	.
!	!	!LO:LB:g=original	!LO:LB:g=original	!	!	!	!	!	!	!	!
=160	=160	=160	=160	=160	=160	=160	=160	=160	=160	=160	=160
4BB/	6 5	4gg\	4gg\	4BB/	A-	4d\	A-	4g\	A-	4ff\	-men
4C/	.	4ee\	4ee\	4C/	-men	4G/	-men	4g\	-men	4ee\	.
*	*	*	*	*	*	*	*Xij	*	*	*	*
=161	=161	=161	=161	=161	=161	=161	=161	=161	=161	=161	=161
4C/	4 2	2dd\	2dd\	4C/	A-	2G/	A-	2g\	A-	2dd\	A-
4BB/	6 5	.	.	4BB/	-men	.	.	.	.	.	.
*	*	*	*	*	*Xij	*	*	*	*	*	*
=162	=162	=162	=162	=162	=162	=162	=162	=162	=162	=162	=162
4C/	.	4cc\	4cc\	4C/	A-	4G/	-men	4g\	-men	2dd\	-men
4FF/	.	4ff\	4ff\	(>4F\	.	(>8d\L	A-	4a\	.	.	.
.	.	.	.	.	.	8c\J)	.	.	.	.	.
*	*	*	*	*	*	*	*	*	*	*	*Xij
=163	=163	=163	=163	=163	=163	=163	=163	=163	=163	=163	=163
!	!	!	!	!	!	!	!	!	!	!LO:N:vis=4	!
2GG/	X 4	4ff\	4ff\	4G\)	-men	4B\	.	4d\	A-	8ee\	A-
!	!	!	!	!	!	!	!	!	!	!LO:N:vis=2	!
.	x 3	.	.	.	.	.	.	.	.	4ff	.
.	.	4ee\	4ee\	4c\	A-	4c\	-men	4g\	.	.	.
!	!	!	!	!	!	!	!	!	!	!LO:N:vis=4	!
.	.	.	.	.	.	.	.	.	.	8ee	.
=164	=164	=164	=164	=164	=164	=164	=164	=164	=164	=164	=164
2GG/	x 4	4dd\	4dd\	2G\	.	(>4c\	A-	2g\	.	2dd\	.
.	X 3	4gg\	4gg\	.	.	4B\)	.	.	.	.	.
=165	=165	=165	=165	=165	=165	=165	=165	=165	=165	=165	=165
2CC/	.	2ee\	2ee\	2C/	-men	2c\	-men	2g\	-men	2ee\	-men
=||;;	=||;;	=||;;	=||;;	=||;;	=||;;	=||;;	=||;;	=||;;	=||;;	=||;;	=||;;
*-	*-	*-	*-	*-	*-	*-	*-	*-	*-	*-	*-
!!!system-decoration: [g1][g2]s7
!!!RDF**kern: > = above
!!!RDF**kern: < = below
!!!RDF**kern: | = vertical stroke
!!!EED: Antoni Szymański
!!!EEV: 2020-11-01
!!!ENC: Anastazja Marusiak
!!!END: 2020-06-05
